packages/foundations/assets/icons/functional/images/buildings/market_24.svg

<svg width="24" height="24" viewBox="0 0 24 24" fill="none" xmlns="http://www.w3.org/2000/svg">
<g clip-path="url(#clip0_184_204)">
<path fill-rule="evenodd" clip-rule="evenodd" d="M4.0005 21C3.73528 21 3.48093 20.8946 3.29339 20.7071C3.10586 20.5196 3.0005 20.2652 3.0005 20C3.0005 19.487 3.4035 19 4.0005 19V12.236C3.3865 11.686 3.0005 10.889 3.0005 10C3.0005 9.558 3.0595 9.366 3.1585 9.011L4.3385 4.496C4.44922 4.06742 4.69933 3.68783 5.04946 3.417C5.39959 3.14616 5.82985 2.99947 6.2725 3H17.7265C18.5835 3 19.3985 3.525 19.6615 4.497L20.8435 9.011C20.9535 9.327 20.9995 9.661 20.9995 10C21 10.422 20.9111 10.8393 20.7388 11.2246C20.5664 11.6098 20.3145 11.9541 19.9995 12.235V19C20.2647 19 20.5191 19.1054 20.7066 19.2929C20.8941 19.4804 20.9995 19.7348 20.9995 20C20.9995 20.2652 20.8941 20.5196 20.7066 20.7071C20.5191 20.8946 20.2647 21 19.9995 21H4.0005ZM18.0005 17H6.0005V19H18.0005V17ZM16.4995 12.598C16.0395 12.866 15.5395 13 15.0005 13C14.4605 13 13.9605 12.866 13.4995 12.598C13.0436 12.8607 12.5267 12.9993 12.0005 13C11.4737 12.9992 10.9562 12.8606 10.4995 12.598C10.0449 12.864 9.52718 13.0029 9.0005 13C8.47321 13.0027 7.95486 12.8639 7.4995 12.598C7.0545 12.858 6.5545 12.993 6.0005 13V15H18.0005V13C17.4738 12.9985 16.9565 12.8599 16.4995 12.598ZM17.7275 5H6.2735L5.0205 9.794C4.98982 9.93973 4.99208 10.0905 5.02711 10.2352C5.06214 10.38 5.12906 10.5151 5.22298 10.6306C5.31689 10.7462 5.43544 10.8394 5.56996 10.9033C5.70448 10.9672 5.85157 11.0002 6.0005 11C6.5175 11 7.0175 10.603 7.4995 9.81C7.9395 10.603 8.4405 11 9.0005 11C9.5605 11 10.0605 10.603 10.4995 9.81C10.9695 10.603 11.4705 11 12.0005 11C12.5305 11 13.0305 10.603 13.4995 9.81C13.9375 10.603 14.4385 11 15.0005 11C15.5625 11 16.0625 10.603 16.4995 9.81C16.9495 10.603 17.4495 11 18.0005 11C18.2657 11 18.5201 10.8946 18.7076 10.7071C18.8951 10.5196 19.0005 10.2652 19.0005 10C19.0005 9.908 18.9315 9.627 18.8965 9.501L17.7275 5Z" fill="#1A1C1F"/>
</g>
<defs>
<clipPath id="clip0_184_204">
<rect width="24" height="24" fill="white"/>
</clipPath>
</defs>
</svg>

<svg xmlns="http://www.w3.org/2000/svg" width="24" height="24" fill="none"><g clip-path="url(#a)"><path fill="#1A1C1F" fill-rule="evenodd" d="M4 21a1 1 0 0 1 0-2v-6.764c-.614-.55-1-1.347-1-2.236 0-.442.06-.634.159-.989l1.18-4.515A1.995 1.995 0 0 1 6.272 3h11.455c.857 0 1.671.525 1.935 1.497l1.181 4.514c.11.316.157.65.157.989a3 3 0 0 1-1 2.235V19a1 1 0 0 1 0 2zm14-4H6v2h12zm-1.5-4.402Q15.81 13 15 13t-1.5-.402A3 3 0 0 1 12 13a3 3 0 0 1-1.5-.402A2.94 2.94 0 0 1 9 13a2.95 2.95 0 0 1-1.5-.402q-.668.39-1.5.402v2h12v-2a3.04 3.04 0 0 1-1.5-.402M17.727 5H6.275L5.02 9.794A1 1 0 0 0 6 11q.774 0 1.499-1.19Q8.16 11 9 11t1.5-1.19Q11.205 11 12 11t1.5-1.19Q14.157 11 15 11q.844 0 1.5-1.19Q17.175 11 18 11a1 1 0 0 0 1-1c0-.092-.069-.373-.104-.499z" clip-rule="evenodd"/></g><defs><clipPath id="a"><path fill="#fff" d="M0 0h24v24H0z"/></clipPath></defs></svg>
